icons/1_Primary/Tom's Hardware.svg

<svg width="1024" height="1024" viewBox="0 0 1024 1024" fill="none" xmlns="http://www.w3.org/2000/svg">
<g clip-path="url(#clip0_2_3681)">
<path d="M512 1024C794.77 1024 1024 794.77 1024 512C1024 229.23 794.77 0 512 0C229.23 0 0 229.23 0 512C0 794.77 229.23 1024 512 1024Z" fill="#FF837D"/>
<path d="M684.11 281.5V336.88C684.084 339.553 683.53 342.194 682.482 344.653C681.433 347.111 679.91 349.339 677.999 351.208C676.088 353.077 673.828 354.551 671.346 355.545C668.865 356.539 666.212 357.033 663.54 357H650.83C642.19 357 632.54 351.67 631.78 345.57C631.02 339.47 622.89 330.07 606.38 330.33C580.98 330.33 564.97 344.33 565.22 357V378.34H490.53V355.68C490.53 332.31 465.13 330.28 465.13 330.28C423.083 331.119 382.791 347.289 351.83 375.75L339.89 364.32C411.28 248.73 486.73 256.1 512.13 256.1H566C579.21 256.1 591.4 281.5 611.22 283.54C619.343 283.686 627.227 280.786 633.32 275.41C633.942 270.895 636.255 266.783 639.791 263.907C643.326 261.03 647.822 259.602 652.37 259.91H664C669.412 260.044 674.555 262.305 678.311 266.204C682.068 270.104 684.137 275.326 684.07 280.74M489.77 408.52L564 410.81L574.67 741.07C574.603 744.676 573.827 748.234 572.384 751.54C570.942 754.846 568.861 757.835 566.263 760.336C563.664 762.837 560.598 764.801 557.239 766.117C553.881 767.432 550.296 768.072 546.69 768H506.54C502.936 767.943 499.379 767.176 496.072 765.744C492.764 764.312 489.772 762.242 487.264 759.653C484.757 757.064 482.784 754.006 481.459 750.655C480.134 747.303 479.481 743.724 479.54 740.12C479.54 739.673 479.556 739.23 479.59 738.79L489.77 408.52Z" fill="white"/>
</g>
<defs>
<clipPath id="clip0_2_3681">
<rect width="1024" height="1024" fill="white"/>
</clipPath>
</defs>
</svg>

<svg xmlns="http://www.w3.org/2000/svg" viewBox="0 0 1024 1024">
   <circle cx="512" cy="512" r="512" style="fill:#d8383b"/>
   <path d="M684.11 281.5v55.38A20.32 20.32 0 0 1 663.54 357h-12.71c-8.64 0-18.29-5.33-19.05-11.43s-8.89-15.5-25.4-15.24c-25.4 0-41.41 14-41.16 26.67v21.34h-74.69v-22.66c0-23.37-25.4-25.4-25.4-25.4a172.5 172.5 0 0 0-113.3 45.47l-11.94-11.43C411.28 248.73 486.73 256.1 512.13 256.1H566c13.21 0 25.4 25.4 45.22 27.44a32.52 32.52 0 0 0 22.1-8.13 18 18 0 0 1 19.05-15.5H664a20.58 20.58 0 0 1 20.07 20.83m-194.3 127.78 74.23 2.29 10.67 330.26A27.44 27.44 0 0 1 546.69 768h-40.15a27.44 27.44 0 0 1-27-27.88q0-.67.05-1.33Z" style="fill:#fff"/>
</svg>
